X:1
T:Salvation for Africa
T:Sarah L. Squire
T:Salvation for Africa
T:Public Domain
T:Public Domain
C:Sarah L. Squire
Z:Public Domain
%%score 1 ( 2 3 )
L:1/8
M:4/4
K:D
V:1 treble 
V:2 bass 
V:3 bass 
V:1
 [DF]2 | [DB]3 [DF] [EG]2 [EG]2 | [DF]4 [DB]4 | [DB]>[DB] [Ec]2 [Fc]2 | [Fd]4 [Fd]4 | %5
w: 1.~Dark|land by night op-|pressed, Chained|by the chains of|wrong; Cry-|
w: 2.~God’s|prom- is- es are|true, He|will His own de-|fend, A-|
w: 3.~Let|not the cares of|earth Fast|bind me to my|home; Break|
w: 4.~Je-|sus shall come a-|gain, When|this whole world has|heard The|
 [GB]>[Gc] [GB]2 [EG]2 | [DF]6 [DB]2 | [Fc]>[Fc] [Fd]2 [Ec]2 | [DB]6 [DB]2 | %9
w: ing for “Liv- ing|Bread” And|Gos- pel light so|strong, With|
w: rise and shine for|Him, Your|light ne’er let grow|dim. Sal-|
w: ev- ery fet- ter,|break, I|am my dear Lord’s|own. I’ll|
w: Gos- pel preached and|sung; O|Christ- ian, tell the|word, Haste,|
 [Ec]>[Ec] [DB]2 [Fc]2 | [Fd]>[Ec] [DB]2 [DB]2 | [Ec]>[Ec] [DB]2 [Ec]2 | [Fd]2 [Fc]2 [Fd]2 [GB]2 | %13
w: none to bear this|light to thee, I|pray, O God, send|me To tell the|
w: va- tion’s sound shall|yet ring round,~Old Af-|ric’s coast by error|bound, And Je- sus|
w: go wher- e’er His|hand may lead,~Doubt not|or ever be a-|fraid, But trust His|
w: haste the day when|Christ shall reign~As Con-|qu’ror and Prince di-|vine, Tri- umph- ant|
 [EG]2 [EB]2 [DF]2 [DB]2 | ([Ec]4 [DB]2) |] %15
w: sto- ry ev- er|new. *|
w: shall the vic- tor|be. *|
w: grace; lean on His|Word. *|
w: o’er this world’s do-|main. *|
V:2
 [B,,B,]2 | [B,,B,]3 [B,,B,] [E,B,]2 [E,B,]2 | [B,,B,]4 [B,,B,]4 | [F,B,]>[F,B,] [F,A,]2 [F,A,]2 | %4
 [B,,B,]4 [B,,B,]4 | [E,B,]>[E,E] [E,E]2 [E,B,]2 | [B,,B,]6 [B,,B,]2 | %7
 [F,A,]>[F,A,] [F,B,]2 [F,A,]2 | [B,,B,]6 [B,,B,]2 | [F,A,]>[F,A,] [F,B,]2 [F,A,]2 | %10
 [B,,B,]>[F,A,] [B,,B,]2 [B,,B,]2 | [F,A,]>[F,A,] [F,B,]2 [F,A,]2 | [B,,B,]2 [B,,B,]2 B,2 [E,E]2 | %13
 [E,B,]2 [E,G,]2 [F,B,]2 [F,B,]2 | ([F,A,]4 [B,,B,]2) |] %15
V:3
 x2 | x8 | x8 | x6 | x8 | x6 | x8 | x6 | x8 | x6 | x6 | x6 | x4 B,2 x2 | x8 | x6 |] %15

